public/images/icons/hand-n-heart.svg

<svg width="20" height="20" viewBox="0 0 20 20" xmlns="http://www.w3.org/2000/svg">
  <g>
    <path d="M6.78365 12.1581C6.72611 12.1132 6.66219 12.0683 6.59825 12.0106L3.88744 9.51617C3.59457 9.22233 3.22613 9.01578 2.82314 8.91955C2.42015 8.82332 1.99844 8.84117 1.60498 8.97112C1.22348 9.08844 0.879575 9.30456 0.607913 9.5977C0.33625 9.89083 0.146442 10.2506 0.0576176 10.6408C-0.0312066 11.0309 -0.0158987 11.4377 0.101986 11.82C0.219871 12.2023 0.436164 12.5468 0.729077 12.8185C2.00777 14.0176 3.28645 15.1911 4.56514 16.3902C6.55541 18.3439 9.22235 19.4492 12.0071 19.4746C14.2256 19.513 16.4378 19.4746 18.6563 19.4746C18.7626 19.4843 18.8697 19.4719 18.971 19.4381C19.0722 19.4043 19.1654 19.3498 19.2447 19.2782C19.3239 19.2065 19.3876 19.1192 19.4315 19.0216C19.4755 18.9241 19.4989 18.8185 19.5002 18.7115C19.5012 18.602 19.4787 18.4936 19.4342 18.3937C19.3898 18.2937 19.3244 18.2045 19.2425 18.1321C19.1606 18.0598 19.0642 18.0059 18.9598 17.9742C18.8553 17.9425 18.7453 17.9337 18.6371 17.9484C16.5976 17.9484 14.5581 17.9484 12.5186 17.9484C10.0904 18.0378 7.72246 17.178 5.91415 15.5502C4.51399 14.2677 3.1458 12.9853 1.77121 11.7028C1.69528 11.6347 1.63362 11.552 1.58987 11.4597C1.54612 11.3675 1.52116 11.2674 1.51639 11.1653C1.51163 11.0632 1.5272 10.9612 1.56217 10.8652C1.59714 10.7693 1.6508 10.6812 1.72005 10.6063C1.79052 10.532 1.87532 10.4728 1.96929 10.4324C2.06326 10.3919 2.16443 10.3711 2.26668 10.3711C2.36893 10.3711 2.47014 10.3919 2.56411 10.4324C2.65808 10.4728 2.74288 10.532 2.81335 10.6063L7.35267 14.7679C7.69298 15.1152 8.14726 15.3271 8.63136 15.3642C10.006 15.3642 11.387 15.3642 12.7615 15.3642C12.9393 15.3579 13.108 15.2842 13.2337 15.1581C13.3595 15.032 13.4329 14.8628 13.4392 14.6845C13.4524 14.5733 13.4404 14.4605 13.404 14.3545C13.3677 14.2486 13.308 14.1522 13.2293 14.0727C13.1506 13.9932 13.055 13.9325 12.9496 13.8952C12.8443 13.8579 12.7319 13.845 12.6209 13.8573H8.90628C8.74769 13.8622 8.59158 13.8172 8.45974 13.7287C8.32791 13.6402 8.22698 13.5125 8.17105 13.3636C8.11391 13.231 8.09798 13.0841 8.12536 12.9422C8.15273 12.8004 8.22213 12.6701 8.32449 12.5685C8.4196 12.4726 8.53523 12.3996 8.66262 12.3552C8.79001 12.3107 8.92579 12.2959 9.05971 12.312H15.9838C16.1307 12.3024 16.2781 12.3024 16.425 12.312C16.814 12.3595 17.1754 12.5384 17.4496 12.8193C17.7238 13.1001 17.8946 13.4662 17.9338 13.8573C17.9338 14.1651 17.9338 14.4986 17.9338 14.8C17.9338 15.0023 18.014 15.1964 18.1567 15.3395C18.2994 15.4826 18.4929 15.563 18.6946 15.563C18.8964 15.563 19.09 15.4826 19.2326 15.3395C19.3753 15.1964 19.4555 15.0023 19.4555 14.8C19.4555 14.5499 19.4555 14.2998 19.4555 14.0497C19.4524 13.1937 19.1168 12.3727 18.5199 11.7609C17.9231 11.1491 17.1119 10.7947 16.2587 10.773C13.7845 10.773 11.3102 10.773 8.82956 10.773C8.53924 10.7642 8.25031 10.8168 7.98156 10.9272C7.71281 11.0377 7.47023 11.2036 7.26956 11.4142C7.12251 11.69 6.96267 11.9272 6.78365 12.1581Z" />
    <path d="M6.78345 12.1578C6.96246 11.927 7.12231 11.6897 7.31411 11.5166C7.51479 11.306 7.75736 11.1401 8.02612 11.0296C8.29487 10.9191 8.5838 10.8666 8.87411 10.8754C11.3548 10.8754 13.829 10.8754 16.3033 10.8754C17.1565 10.897 17.9676 11.2514 18.5645 11.8632C19.1614 12.4751 19.497 13.2961 19.5 14.1521C19.5 14.4022 19.5 14.6522 19.5 14.9023C19.5 15.1047 19.4198 15.2988 19.2772 15.4419C19.1345 15.585 18.941 15.6654 18.7392 15.6654C18.5374 15.6654 18.3439 15.585 18.2012 15.4419C18.0585 15.2988 17.9784 15.1047 17.9784 14.9023C17.9784 14.5881 17.9784 14.2611 17.9784 13.9597C17.9391 13.5686 17.7684 13.2025 17.4942 12.9216C17.22 12.6408 16.8586 12.4619 16.4695 12.4143C16.3226 12.4047 16.1753 12.4047 16.0284 12.4143H9.09147C8.95754 12.3983 8.82176 12.4131 8.69438 12.4575C8.56699 12.502 8.45136 12.5749 8.35625 12.6708C8.25389 12.7725 8.18449 12.9028 8.15712 13.0446C8.12974 13.1865 8.14567 13.3333 8.20281 13.466C8.25873 13.6149 8.35967 13.7425 8.4915 13.8311C8.62333 13.9196 8.77945 13.9646 8.93803 13.9597H12.6526C12.7637 13.9473 12.876 13.9603 12.9814 13.9976C13.0867 14.0349 13.1823 14.0955 13.261 14.1751C13.3397 14.2546 13.3994 14.351 13.4358 14.4569C13.4722 14.5628 13.4842 14.6756 13.471 14.7869C13.4646 14.9651 13.3912 15.1344 13.2655 15.2605C13.1397 15.3866 12.971 15.4602 12.7933 15.4666C11.4187 15.4666 10.0377 15.4666 8.66312 15.4666C8.17901 15.4295 7.72474 15.2176 7.38443 14.8703L2.8451 10.7086C2.77463 10.6343 2.68984 10.5752 2.59587 10.5347C2.5019 10.4943 2.40069 10.4735 2.29844 10.4735C2.19619 10.4735 2.09502 10.4943 2.00105 10.5347C1.90708 10.5752 1.82228 10.6343 1.75181 10.7086C1.68256 10.7836 1.62889 10.8716 1.59393 10.9676C1.55896 11.0636 1.54339 11.1656 1.54815 11.2677C1.55291 11.3697 1.57788 11.4698 1.62163 11.5621C1.66538 11.6544 1.72704 11.737 1.80297 11.8052C3.17756 13.0876 4.54574 14.3701 5.94591 15.6526C7.75421 17.2804 10.1221 18.1402 12.5503 18.0508C14.5899 18.0508 16.6294 18.0508 18.6689 18.0508C18.8659 18.0308 19.0629 18.0886 19.2181 18.2119C19.3733 18.3352 19.4744 18.5144 19.5 18.7113C19.4971 18.8184 19.4721 18.9238 19.4266 19.0207C19.381 19.1177 19.316 19.2041 19.2355 19.2746C19.155 19.3451 19.0609 19.3981 18.9589 19.4303C18.857 19.4624 18.7495 19.4731 18.6433 19.4615C16.4247 19.4615 14.2126 19.4936 11.9941 19.4615C9.20935 19.4362 6.54241 18.3309 4.55214 16.3772C3.27345 15.178 1.99477 14.0046 0.716077 12.8055C0.423164 12.5337 0.20687 12.1893 0.0889856 11.807C-0.0288992 11.4246 -0.0442071 11.0179 0.0446171 10.6277C0.133441 10.2376 0.32325 9.87776 0.594912 9.58463C0.866574 9.2915 1.21048 9.07539 1.59198 8.95807C1.98544 8.82812 2.40715 8.81027 2.81014 8.90651C3.21313 9.00274 3.58157 9.20928 3.87444 9.50312L6.58525 11.9975C6.66197 12.0681 6.71312 12.1129 6.78345 12.1578Z" />
    <path fill="#FF0000" d="M10.6706 8.85549C13.1513 6.59193 15.4849 4.47584 15.4849 2.65473C15.4883 2.30515 15.4222 1.95841 15.2904 1.63477C15.1586 1.31114 14.9637 1.01712 14.7173 0.769922C14.4708 0.522723 14.1776 0.327301 13.8549 0.195103C13.5323 0.0629044 13.1866 -0.00340788 12.838 1.95814e-05C12.426 0.00277763 12.0194 0.0940623 11.6455 0.267723C11.2716 0.441384 10.9392 0.693393 10.6706 1.00677C10.4 0.694186 10.0663 0.442802 9.69155 0.26925C9.31681 0.0956977 8.90958 0.0039295 8.49684 1.95814e-05C8.14829 -0.00340788 7.80259 0.0629044 7.47991 0.195103C7.15723 0.327301 6.86406 0.522723 6.61759 0.769922C6.37112 1.01712 6.17628 1.31114 6.04447 1.63477C5.91266 1.95841 5.84656 2.30515 5.84998 2.65473C5.84998 4.47584 8.18357 6.59193 10.6706 8.85549ZM8.49684 1.60951C8.6778 1.61145 8.8563 1.6519 9.02052 1.72818C9.18474 1.80445 9.33097 1.9148 9.44949 2.05196L10.6706 3.49475L11.8854 2.05196C12.0039 1.9148 12.1501 1.80445 12.3143 1.72818C12.4785 1.6519 12.657 1.61145 12.838 1.60951C12.9758 1.60599 13.1129 1.63062 13.2409 1.6819C13.3689 1.73318 13.4852 1.81005 13.5827 1.90782C13.6802 2.00559 13.7568 2.12221 13.808 2.25061C13.8591 2.37901 13.8837 2.51651 13.8801 2.65473C13.8801 3.55887 12.2434 5.21969 10.6834 6.67529C9.10424 5.20686 7.4867 3.55246 7.4867 2.65473C7.4833 2.51923 7.50684 2.38442 7.556 2.25816C7.60516 2.13191 7.67895 2.01676 7.77301 1.91944C7.86707 1.82212 7.97951 1.74458 8.1038 1.69137C8.22809 1.63815 8.3617 1.61032 8.49684 1.60951Z" />
  </g>
</svg>

<svg xmlns="http://www.w3.org/2000/svg" width="20" height="20"><path d="M6.784 12.158l-.185-.147-2.711-2.494c-.293-.294-.661-.5-1.064-.597a2.23 2.23 0 0 0-1.218.052 2.27 2.27 0 0 0-.997.627 2.28 2.28 0 0 0-.55 1.043c-.089.39-.074.797.044 1.179s.334.727.627.999l3.836 3.572c1.99 1.954 4.657 3.059 7.442 3.084h6.649a.77.77 0 0 0 .315-.037c.101-.034.194-.088.274-.16s.143-.159.187-.257.067-.203.069-.31-.021-.218-.066-.318a.76.76 0 0 0-.474-.419.76.76 0 0 0-.323-.026h-6.119c-2.428.089-4.796-.77-6.604-2.398l-4.143-3.847a.77.77 0 0 1-.255-.537.77.77 0 0 1 .204-.559c.07-.074.155-.133.249-.174a.75.75 0 0 1 .595 0c.094.04.179.1.249.174l4.539 4.162c.34.347.795.559 1.279.596h4.13a.7.7 0 0 0 .472-.206c.126-.126.199-.295.205-.474.013-.111.001-.224-.035-.33s-.096-.202-.175-.282a.74.74 0 0 0-.608-.215H8.906a.76.76 0 0 1-.447-.129c-.132-.088-.233-.216-.289-.365a.72.72 0 0 1 .153-.795.89.89 0 0 1 .338-.213c.127-.044.263-.059.397-.043h6.924c.147-.01.294-.01.441 0 .389.048.75.226 1.025.507s.445.647.484 1.038v.943c0 .202.08.396.223.539a.76.76 0 0 0 1.076 0c.143-.143.223-.337.223-.539v-.75c-.003-.856-.339-1.677-.936-2.289s-1.408-.966-2.261-.988H8.83c-.29-.009-.579.044-.848.154a2.07 2.07 0 0 0-.712.487c-.147.276-.307.513-.486.744z"/><path d="M6.783 12.158c.179-.231.339-.468.531-.641a2.07 2.07 0 0 1 .712-.487c.269-.111.558-.163.848-.154h7.429c.853.022 1.664.376 2.261.988s.933 1.433.936 2.289v.75c0 .202-.08.396-.223.54a.76.76 0 0 1-1.076 0c-.143-.143-.223-.337-.223-.54v-.943c-.039-.391-.21-.757-.484-1.038s-.636-.46-1.025-.507a3.38 3.38 0 0 0-.441 0H9.091c-.134-.016-.27-.001-.397.043a.89.89 0 0 0-.338.213.72.72 0 0 0-.153.795c.056.149.157.277.289.365a.76.76 0 0 0 .447.129h3.715a.74.74 0 0 1 .608.215c.079.079.138.176.175.282s.048.219.035.33c-.006.178-.08.348-.206.474s-.294.2-.472.206h-4.13c-.484-.037-.938-.249-1.279-.596l-4.539-4.162c-.07-.074-.155-.133-.249-.174s-.195-.061-.297-.061-.203.021-.297.061-.179.1-.249.174a.77.77 0 0 0-.204.559.77.77 0 0 0 .255.537l4.143 3.847c1.808 1.628 4.176 2.488 6.604 2.398h6.119a.76.76 0 0 1 .549.161c.155.123.256.302.282.499a.78.78 0 0 1-.073.309c-.046.097-.111.183-.191.254s-.175.123-.277.156a.77.77 0 0 1-.316.031h-6.649c-2.785-.025-5.452-1.131-7.442-3.084L.716 12.806a2.28 2.28 0 0 1-.627-.998c-.118-.382-.133-.789-.044-1.179a2.28 2.28 0 0 1 .55-1.043 2.27 2.27 0 0 1 .997-.627 2.23 2.23 0 0 1 1.218-.052c.403.096.771.303 1.064.597l2.711 2.494c.077.071.128.115.198.16z"/><path fill="red" d="M10.671 8.855c2.481-2.264 4.814-4.38 4.814-6.201.003-.35-.063-.696-.194-1.02a2.63 2.63 0 0 0-.573-.865 2.62 2.62 0 0 0-.862-.575c-.323-.132-.668-.199-1.017-.195-.412.003-.819.094-1.192.268s-.706.426-.975.739C10.4.694 10.066.443 9.692.269A2.91 2.91 0 0 0 8.497 0c-.349-.003-.694.063-1.017.195a2.62 2.62 0 0 0-.862.575 2.63 2.63 0 0 0-.573.865c-.132.324-.198.67-.194 1.02 0 1.821 2.334 3.937 4.821 6.201zM8.497 1.61c.181.002.359.042.524.119a1.28 1.28 0 0 1 .429.324l1.221 1.443 1.215-1.443a1.28 1.28 0 0 1 .429-.324c.164-.076.343-.117.524-.119.138-.004.275.021.403.072s.244.128.342.226a1.02 1.02 0 0 1 .297.747c0 .904-1.637 2.565-3.197 4.021-1.579-1.468-3.197-3.123-3.197-4.021a1.02 1.02 0 0 1 .286-.735c.094-.097.207-.175.331-.228s.258-.081.393-.082z"/></svg>
